svgs/thin/input-pipe.svg

<svg xmlns="http://www.w3.org/2000/svg" viewBox="0 0 640 512"><!--! Font Awesome Pro 6.4.0 by @fontawesome - https://fontawesome.com License - https://fontawesome.com/license (Commercial License) Copyright 2023 Fonticons, Inc. --><path d="M64 80c-26.5 0-48 21.5-48 48V384c0 26.5 21.5 48 48 48H576c26.5 0 48-21.5 48-48V128c0-26.5-21.5-48-48-48H64zM0 128C0 92.7 28.7 64 64 64H576c35.3 0 64 28.7 64 64V384c0 35.3-28.7 64-64 64H64c-35.3 0-64-28.7-64-64V128zm128 40V344c0 4.4-3.6 8-8 8s-8-3.6-8-8V168c0-4.4 3.6-8 8-8s8 3.6 8 8z"/></svg>

<svg xmlns="http://www.w3.org/2000/svg" viewBox="0 0 640 512"><!--! Font Awesome Pro 6.3.0 by @fontawesome - https://fontawesome.com License - https://fontawesome.com/license (Commercial License) Copyright 2023 Fonticons, Inc. --><path d="M128 344C128 348.4 124.4 352 120 352C115.6 352 112 348.4 112 344V168C112 163.6 115.6 160 120 160C124.4 160 128 163.6 128 168V344zM0 128C0 92.65 28.65 64 64 64H576C611.3 64 640 92.65 640 128V384C640 419.3 611.3 448 576 448H64C28.65 448 0 419.3 0 384V128zM16 128V384C16 410.5 37.49 432 64 432H576C602.5 432 624 410.5 624 384V128C624 101.5 602.5 80 576 80H64C37.49 80 16 101.5 16 128z"/></svg>
